images/spwn.svg

<svg height="250" viewBox="0 0 250 250" width="250" xmlns="http://www.w3.org/2000/svg" xmlns:xlink="http://www.w3.org/1999/xlink"><linearGradient id="a" gradientTransform="matrix(23.282625 0 0 18.23175 5.051113 -.448262)" gradientUnits="userSpaceOnUse" x1=".5" x2=".060596" y1=".29908" y2=".761425"><stop offset="0" stop-color="#c578f3"/><stop offset=".865157" stop-color="#54feb0"/><stop offset=".866678" stop-color="#53ffb0"/><stop offset="1" stop-color="#53ffb0"/></linearGradient><linearGradient id="b" gradientUnits="userSpaceOnUse" x1="14.06287734" x2="5.6839657605" y1="5.865524484" y2="26.7122316345"><stop offset="0" stop-color="#c578f3"/><stop offset=".865157" stop-color="#54feb0"/><stop offset=".92842" stop-color="#53ffb0"/><stop offset="1" stop-color="#53ffb0"/></linearGradient><path d="m250 125c0 69.035156-55.964844 125-125 125s-125-55.964844-125-125 55.964844-125 125-125 125 55.964844 125 125zm0 0" fill="#0b0e1c" fill-rule="evenodd"/><path d="m231.632812 106.476562c0 58.804688-47.671874 106.476563-106.476562 106.476563s-106.476562-47.671875-106.476562-106.476563c0-58.804687 47.671874-106.476562 106.476562-106.476562s106.476562 47.671875 106.476562 106.476562zm0 0" fill="#0b0e1c" fill-rule="evenodd"/><path d="m28.327738-.448262s-9.2025 2.747625-9.232125 2.747625c-.014625 0-1.40925-.8115-2.905875-1.23375-1.558125-.43875-3.338625-.50775-3.338625-.50775-1.614-.815625-3.202875-.56662496-4.78275.048375l.7605.693c-3.663 1.810125-3.49125 8.863875-3.77775 12.009375 0 .064125 1.224-3.878625 1.224-3.878625l3.6675-1.0005s-.280875 1.483875-.65475 1.66425c-.40425.195-1.05825.351375-1.5525.467625l-2.35875 7.222125.81525-.27525 2.142375-6.346125s1.102875-.300375 1.476375-.514125c.2505-.143625.436875-.6495.493125-.84075.167625-.572625.507-1.61625.516-2.397l-4.549125 1.249125c.254625-3.186375 1.512-6.2025 3.2895-6.807 1.596375 1.246875 2.98875 2.7285 4.128375 4.3935l-.827625.447375c-.28425.154875-.504375.340125-.594375.778125l-.089625.561c-.0465.365625.117375.750375.29925 1.0725l1.2045 2.004-.328875 1.785375-4.945125 1.73325c-.427875.177375-.583125.225-.799875.82125l-.56175 1.771875.740625-.24975s.29325-1.038.385125-1.30125c.091875-.262875.455625-.411375.77625-.522375 2.049-.707625 2.557875-.884625 2.557875-.884625s-.098625 1.162125-.780375 1.716375c1.061625-.3585 1.337625-.899625 1.6755-2.005875l1.6785-.675.46875-2.17725 3.17325-1.88475c.195-.115875.364875-.26925.49875-.451125s.229125-.3885.2805-.6075l1.26975-5.37675 7.794375-2.2035s-.07575.731625-.411375 1.439625c-.157125.331875-.32025.703125-.693375 1.15425-.363375.439125-.880875 1.003125-1.215 1.13625l-4.8435 1.63425-.1635.807375 4.98825-1.68375c.012375.718875-.58725 1.830375-1.213125 2.49675-.684375.727875-2.33475 1.350375-3.490125 1.7475-.682875.23475-1.213875.421875-1.213875.421875l-.257625.805125 2.2905-.73275c-.004125.208125-.195.697125-.282.89325-.322875.733125-.69525 1.185-1.686375 1.57275-.991125.388125-6.290625 2.20425-6.290625 2.20425l-.304875.855s4.780875-1.551375 7.010625-2.3655c1.6005-.584625 2.215875-1.855125 2.461125-3.4815 2.6265-1.357875 3.65475-2.436 3.819-4.85025 1.8825-1.3965 2.325375-3.2865 2.25975-5.1zm-19.087875 1.2075c2.2365-.6555 4.16475.44325 6.78075 4.375875l-1.6185.766125c-1.316625-1.807875-3.034125-3.591375-5.16225-5.142zm7.75875 8.019375-2.775 1.60725-1.136625-1.797c-.0975-.157875-.13575-.344625-.108-.527625l.049125-.3315c.015-.100875.031875-.210375.10125-.286125.213-.232125.706875-.471375.706875-.471375l2.52525-1.235625 1.073625 1.5825c.124875.182625.189.399375.183375.6195 0 .02475-.002625.049125-.007875.073125-.0945.3255-.292125.5625-.612.766875zm.979875-2.069625c-1.003875-1.42425-1.6905-2.620875-2.55375-3.666375-.5115-.619875-1.138125-1.291125-1.972125-1.785375 1.692375.087375 3.78675.693375 5.3775 1.79925zm0 0" fill="url(#a)" stroke="url(#a)" stroke-linejoin="round" stroke-width=".5" transform="matrix(10.416667 0 0 10.416667 18.368614 18.368614)"/><path d="m22.20675 11.985c0 5.64525-4.5765 10.22175-10.22175 10.22175s-10.22175-4.5765-10.22175-10.22175 4.5765-10.22175 10.22175-10.22175 10.22175 4.5765 10.22175 10.22175zm0 0" fill="none" stroke="url(#b)" stroke-width=".657534" transform="scale(10.416667)"/></svg>

<svg xmlns="http://www.w3.org/2000/svg" xmlns:xlink="http://www.w3.org/1999/xlink" width="250px" height="250px" viewBox="0 0 250 250" version="1.1">
<defs>
<linearGradient id="linear0" gradientUnits="userSpaceOnUse" x1="0.5" y1="0.29908" x2="0.0605964" y2="0.761425" gradientTransform="matrix(23.282625,0,0,18.23175,5.051113,-0.448262)">
<stop offset="0" style="stop-color:rgb(77.254903%,47.058824%,95.294118%);stop-opacity:1;"/>
<stop offset="0.865157" style="stop-color:rgb(32.941177%,99.607843%,69.01961%);stop-opacity:1;"/>
<stop offset="0.866678" style="stop-color:rgb(32.549021%,100%,69.01961%);stop-opacity:1;"/>
<stop offset="1" style="stop-color:rgb(32.549021%,100%,69.01961%);stop-opacity:1;"/>
</linearGradient>
<linearGradient id="linear1" gradientUnits="userSpaceOnUse" x1="0.5" y1="0.29908" x2="0.0605964" y2="0.761425" gradientTransform="matrix(23.282625,0,0,18.23175,5.051113,-0.448262)">
<stop offset="0" style="stop-color:rgb(77.254903%,47.058824%,95.294118%);stop-opacity:1;"/>
<stop offset="0.865157" style="stop-color:rgb(32.941177%,99.607843%,69.01961%);stop-opacity:1;"/>
<stop offset="0.866678" style="stop-color:rgb(32.549021%,100%,69.01961%);stop-opacity:1;"/>
<stop offset="1" style="stop-color:rgb(32.549021%,100%,69.01961%);stop-opacity:1;"/>
</linearGradient>
<linearGradient id="linear2" gradientUnits="userSpaceOnUse" x1="0.60164" y1="0.200664" x2="0.191783" y2="1.220387" gradientTransform="matrix(20.4435,0,0,20.4435,1.76325,1.76325)">
<stop offset="0" style="stop-color:rgb(77.254903%,47.058824%,95.294118%);stop-opacity:1;"/>
<stop offset="0.865157" style="stop-color:rgb(32.941177%,99.607843%,69.01961%);stop-opacity:1;"/>
<stop offset="0.92842" style="stop-color:rgb(32.549021%,100%,69.01961%);stop-opacity:1;"/>
<stop offset="1" style="stop-color:rgb(32.549021%,100%,69.01961%);stop-opacity:1;"/>
</linearGradient>
</defs>
<g id="surface1">
<path style=" stroke:none;fill-rule:evenodd;fill:rgb(4.313726%,5.490196%,10.980392%);fill-opacity:1;" d="M 250 125 C 250 194.035156 194.035156 250 125 250 C 55.964844 250 0 194.035156 0 125 C 0 55.964844 55.964844 0 125 0 C 194.035156 0 250 55.964844 250 125 Z M 250 125 "/>
<path style=" stroke:none;fill-rule:evenodd;fill:rgb(4.313726%,5.490196%,10.980392%);fill-opacity:1;" d="M 231.632812 106.476562 C 231.632812 165.28125 183.960938 212.953125 125.15625 212.953125 C 66.351562 212.953125 18.679688 165.28125 18.679688 106.476562 C 18.679688 47.671875 66.351562 0 125.15625 0 C 183.960938 0 231.632812 47.671875 231.632812 106.476562 Z M 231.632812 106.476562 "/>
<path style="fill-rule:nonzero;fill:url(#linear0);stroke-width:0.5;stroke-linecap:butt;stroke-linejoin:round;stroke:url(#linear1);stroke-miterlimit:4;" d="M 28.327738 -0.448262 C 28.327738 -0.448262 19.125238 2.299363 19.095613 2.299363 C 19.080988 2.299363 17.686363 1.487863 16.189738 1.065613 C 14.631613 0.626863 12.851113 0.557863 12.851113 0.557863 C 11.237113 -0.257762 9.648238 -0.00876196 8.068363 0.606238 L 8.828863 1.299238 C 5.165863 3.109363 5.337613 10.163113 5.051113 13.308613 C 5.051113 13.372738 6.275113 9.429988 6.275113 9.429988 L 9.942613 8.429488 C 9.942613 8.429488 9.661738 9.913363 9.287863 10.093738 C 8.883613 10.288738 8.229613 10.445113 7.735363 10.561363 L 5.376613 17.783488 L 6.191863 17.508238 L 8.334238 11.162113 C 8.334238 11.162113 9.437113 10.861738 9.810613 10.647988 C 10.061113 10.504363 10.247488 9.998488 10.303738 9.807238 C 10.471363 9.234613 10.810738 8.190988 10.819738 7.410238 L 6.270613 8.659363 C 6.525238 5.472988 7.782613 2.456863 9.560113 1.852363 C 11.156488 3.099238 12.548863 4.580863 13.688488 6.245863 L 12.860863 6.693238 C 12.576613 6.848113 12.356488 7.033363 12.266488 7.471363 L 12.176863 8.032363 C 12.130363 8.397988 12.294238 8.782738 12.476113 9.104863 L 13.680613 11.108863 L 13.351738 12.894238 L 8.406613 14.627488 C 7.978738 14.804863 7.823488 14.852488 7.606738 15.448738 L 7.044988 17.220613 L 7.785613 16.970863 C 7.785613 16.970863 8.078863 15.932863 8.170738 15.669613 C 8.262613 15.406738 8.626363 15.258238 8.946988 15.147238 C 10.995988 14.439613 11.504863 14.262613 11.504863 14.262613 C 11.504863 14.262613 11.406238 15.424738 10.724488 15.978988 C 11.786113 15.620488 12.062113 15.079363 12.399988 13.973113 L 14.078488 13.298113 L 14.547238 11.120863 L 17.720488 9.236113 C 17.915488 9.120238 18.085363 8.966863 18.219238 8.784988 C 18.353113 8.603113 18.448363 8.396488 18.499738 8.177488 L 19.769488 2.800738 L 27.563863 0.597238 C 27.563863 0.597238 27.488113 1.328863 27.152488 2.036863 C 26.995363 2.368738 26.832238 2.739988 26.459113 3.191113 C 26.095738 3.630238 25.578238 4.194238 25.244113 4.327363 L 20.400613 5.961613 L 20.237113 6.768988 L 25.225363 5.085238 C 25.237738 5.804113 24.638113 6.915613 24.012238 7.581988 C 23.327863 8.309863 21.677488 8.932363 20.522113 9.329488 C 19.839238 9.564238 19.308238 9.751363 19.308238 9.751363 L 19.050613 10.556488 L 21.341113 9.823738 C 21.336988 10.031863 21.146113 10.520863 21.059113 10.716988 C 20.736238 11.450113 20.363863 11.901988 19.372738 12.289738 C 18.381613 12.677863 13.082113 14.493988 13.082113 14.493988 L 12.777238 15.348988 C 12.777238 15.348988 17.558113 13.797613 19.787863 12.983488 C 21.388363 12.398863 22.003738 11.128363 22.248988 9.501988 C 24.875488 8.144113 25.903738 7.065988 26.067988 4.651738 C 27.950488 3.255238 28.393363 1.365238 28.327738 -0.448262 Z M 9.239863 0.759238 C 11.476363 0.103738 13.404613 1.202488 16.020613 5.135113 L 14.402113 5.901238 C 13.085488 4.093363 11.367988 2.309863 9.239863 0.759238 Z M 16.998613 8.778613 L 14.223613 10.385863 L 13.086988 8.588863 C 12.989488 8.430988 12.951238 8.244238 12.978988 8.061238 L 13.028113 7.729738 C 13.043113 7.628863 13.059988 7.519363 13.129363 7.443613 C 13.342363 7.211488 13.836238 6.972238 13.836238 6.972238 L 16.361488 5.736613 L 17.435113 7.319113 C 17.559988 7.501738 17.624113 7.718488 17.618488 7.938613 C 17.618488 7.963363 17.615863 7.987738 17.610613 8.011738 C 17.516113 8.337238 17.318488 8.574238 16.998613 8.778613 Z M 17.978488 6.708988 C 16.974613 5.284738 16.287988 4.088113 15.424738 3.042613 C 14.913238 2.422738 14.286613 1.751488 13.452613 1.257238 C 15.144988 1.344613 17.239363 1.950613 18.830113 3.056488 Z M 17.978488 6.708988 " transform="matrix(10.416667,0,0,10.416667,18.368614,18.368614)"/>
<path style="fill:none;stroke-width:0.657534;stroke-linecap:butt;stroke-linejoin:miter;stroke:url(#linear2);stroke-miterlimit:4;" d="M 22.20675 11.985 C 22.20675 17.63025 17.63025 22.20675 11.985 22.20675 C 6.33975 22.20675 1.76325 17.63025 1.76325 11.985 C 1.76325 6.33975 6.33975 1.76325 11.985 1.76325 C 17.63025 1.76325 22.20675 6.33975 22.20675 11.985 Z M 22.20675 11.985 " transform="matrix(10.416667,0,0,10.416667,0,0)"/>
</g>
</svg>
